X: 62
%
U:~=!turn!
T: The Bridge of Inver
C:James Macintosh
O:Scotland
B:Keith Norman MacDonald : "The Skye collection of the best reels & strathspeys extant" : 1887
Z:Ralph Palmer
R:Reel
M:C|
L:1/8
K:Bb
d | ~B2 (FE) DB,B,D | ECCE DF~FA | ~B2 (FE) DFBF | BecA ~B2 B :|
f | dBdf gBbB | fd{/d}cB (Ac)~cf | dBdf (gb)fg | dfcA ~B2 (Bf) |
dBdf gBbB | gBfB (Ac)Tcd | (~BG)(FE) DFBF | GecA ~B2 B |]


